icons/Users_filled.svg

<svg width="24" height="24" viewBox="0 0 24 24" fill="none" xmlns="http://www.w3.org/2000/svg">
<path fill-rule="evenodd" clip-rule="evenodd" d="M14.7551,4.41297c0.048,-0.41142 0.4205,-0.70596 0.8319,-0.65789c2.2373,0.26141 3.973,2.16209 3.973,4.46924c0,2.30718 -1.7357,4.20778 -3.973,4.46928c-0.4114,0.048 -0.7839,-0.2465 -0.8319,-0.6579c-0.0481,-0.4114 0.2464,-0.7839 0.6579,-0.832c1.4901,-0.1741 2.647,-1.4422 2.647,-2.97938c0,-1.53719 -1.1569,-2.80526 -2.647,-2.97938c-0.4115,-0.04807 -0.706,-0.42056 -0.6579,-0.83197zM13.56,8.24984c0,2.48516 -2.0147,4.49986 -4.49988,4.49986c-2.48519,0 -4.49984,-2.0147 -4.49984,-4.49986c0,-2.4852 2.01465,-4.49984 4.49984,-4.49984c2.48518,0 4.49988,2.01464 4.49988,4.49984zM2.25,18.5c0,-2.6234 2.12665,-4.75 4.75,-4.75h4c2.6234,0 4.75,2.1266 4.75,4.75v1c0,0.4142 -0.3358,0.75 -0.75,0.75h-12c-0.41421,0 -0.75,-0.3358 -0.75,-0.75zM17.1,13.75c2.5681,0 4.65,2.0819 4.65,4.65v1.1c0,0.4142 -0.3358,0.75 -0.75,0.75c-0.4142,0 -0.75,-0.3358 -0.75,-0.75v-1.1c0,-1.7397 -1.4103,-3.15 -3.15,-3.15h-0.1c-0.4142,0 -0.75,-0.3358 -0.75,-0.75c0,-0.4142 0.3358,-0.75 0.75,-0.75z" fill="#002B51"/>
</svg>

<svg width="24" height="24" viewBox="0 0 24 24" fill="none" xmlns="http://www.w3.org/2000/svg">
<path fill-rule="evenodd" clip-rule="evenodd" d="M14.7551 4.41297C14.8031 4.00155 15.1756 3.70701 15.587 3.75508C17.8243 4.01649 19.56 5.91717 19.56 8.22432C19.56 10.5315 17.8243 12.4321 15.587 12.6936C15.1756 12.7416 14.8031 12.4471 14.7551 12.0357C14.707 11.6243 15.0015 11.2518 15.413 11.2037C16.9031 11.0296 18.06 9.7615 18.06 8.22432C18.06 6.68713 16.9031 5.41906 15.413 5.24494C15.0015 5.19687 14.707 4.82438 14.7551 4.41297ZM9.06012 3.75C6.57493 3.75 4.56028 5.76464 4.56028 8.24984C4.56028 10.735 6.57493 12.7497 9.06012 12.7497C11.5453 12.7497 13.56 10.735 13.56 8.24984C13.56 5.76464 11.5453 3.75 9.06012 3.75ZM2.25 18.5C2.25 15.8766 4.37665 13.75 7 13.75H11C13.6234 13.75 15.75 15.8766 15.75 18.5V19.5C15.75 19.9142 15.4142 20.25 15 20.25H3C2.58579 20.25 2.25 19.9142 2.25 19.5V18.5ZM17 13.75C16.5858 13.75 16.25 14.0858 16.25 14.5C16.25 14.9142 16.5858 15.25 17 15.25H17.1C18.8397 15.25 20.25 16.6603 20.25 18.4V19.5C20.25 19.9142 20.5858 20.25 21 20.25C21.4142 20.25 21.75 19.9142 21.75 19.5V18.4C21.75 15.8319 19.6681 13.75 17.1 13.75H17Z" fill="#002B51"/>
</svg>
